X:1
T:Title
%%score { ( 1 3 4 6 ) | ( 2 5 ) }
L:1/8
M:3/4
K:F
V:1 treble nm="Grand Piano"
V:3 treble 
V:4 treble 
V:6 treble 
V:2 bass 
V:5 bass 
V:1
 z2 z[Q:1/4=88] A _A=A | F3 c dA | c3 A _A=A | F3 A GD |[M:3/8] [EG]3 | A_A=A |[M:3/4] F3 c dA | %7
 c3 c dd | [Ac]3 [FA] [EG][EA] |[M:3/8] F3 | cdA |[M:3/4] c4 z2 | z C z G ^FG | B-[DB-] BG DE | %14
 CC z c dA | c4 z2 | G4 z2 | z F z A =BB |[M:13/16] c/-c/-c/-c-<c z/ z/ z/ z/ z |[M:3/4] [Ac]4 z2 | %20
 z2 z G ^FG | [DB]4[K:bass][K:treble] z2 | z A, z c dA | [Ac]4 z2 | %24
 d4 z2[Q:1/4=87][Q:1/4=85][Q:1/4=84][Q:1/4=83][Q:1/4=82] | %25
 c4 z2[Q:1/4=80][Q:1/4=79][Q:1/4=78][Q:1/4=76][Q:1/4=75][Q:1/4=74][Q:1/4=72][Q:1/4=71][Q:1/4=70][Q:1/4=69][Q:1/4=67] | %26
[M:7/16] F/-F/-F/-F-<F |] %27
V:2
 z2 z [F,CF] [F,CF][F,CF] | [F,A,]3 [F,A,F] [F,B,F][F,CF] | [F,A,F]3 [F,CF] [F,=B,F][F,CF] | %3
 [F,A,]3 [F,CF] [G,=B,D][G,B,] |[M:3/8] [C,B,]3 | [F,CF][F,CF][F,CF] | %6
[M:3/4] [F,A,]3 [F,A,F] [F,B,F][F,CF] | [F,A,F]3 [F,A,F] [F,B,F][F,DF] | [F,F]3 [F,C] [C,B,][C,C] | %9
[M:3/8] [F,A,]3 | z3 |[M:3/4] [F,A,F][C,A,] [F,A,]2 z2 | [C,B,C][C,G,] [C,B,]2 z2 | %13
 [C,G,][C,F,] [C,E,]2 z2 | [F,A,][C,A,] [F,A,]2 z2 | [F,A,F][C,A,] [F,A,]2 z2 | %16
 [G,CE][C,C] [G,C]2 z2 | [G,=B,F][D,B,] [G,B,]2 [G,DF]2 | %18
[M:13/16][K:bass] [C,C][C,A,][C,B,]3/2[K:treble]ABF |[M:3/4][K:bass] [F,A,]C, z C B,A, | %20
 [C,G,B,]C, z E _E=E | [C,G,]C, z B, B,B, | [F,A,]C, z[K:treble] A BF | %23
 [F,A,]F, F,[F,_EF] [F,EF][F,E] | F-[F,F-] [B,F][B,FB] [B,FB][B,FB] | .[CF]2 z2[K:bass] z2 | %26
[M:7/16] z B,A,3/2 |] %27
V:3
 x6 | x6 | x6 | x6 |[M:3/8] x3 | x3 |[M:3/4] x6 | x6 | x6 |[M:3/8] x3 | x3 |[M:3/4] z F z A GF | %12
 E4 z2 | .E2 C2 z2 | z2 C2 z2 | z F z A GF | z E z G ^FG | A4 z2 |[M:13/16] EFG3/2cdA | %19
[M:3/4] z A, z A GF | E4 z2 | z[K:bass] F, z[K:treble] G DE | C4 z2 | z C FA GF | z D Dd dd | %25
 z F F[CFA] [B,EG][CEA] |[M:7/16] A,DC3/2 |] %27
V:4
 x6 | x6 | x6 | x6 |[M:3/8] x3 | x3 |[M:3/4] x6 | x6 | x6 |[M:3/8] x3 | x3 |[M:3/4] z2 F2 z2 | %12
 z2 C2 z2 | x6 | x6 | z2 F2 z2 | z2 E2 z2 | z2 F2 z2 |[M:13/16] x13/2 |[M:3/4] z2 A,2 z2 | %20
 z2 B,2 z2 | z2[K:bass] E,2[K:treble] z2 | z2 A,2 z2 | x6 | x6 | x6 |[M:7/16] x7/2 |] %27
V:5
 x6 | x6 | x6 | x6 |[M:3/8] x3 | x3 |[M:3/4] x6 | x6 | x6 |[M:3/8] x3 | x3 |[M:3/4] x6 | x6 | x6 | %14
 x6 | x6 | x6 | x6 |[M:13/16][K:bass] x7/2[K:treble] x3 |[M:3/4][K:bass] z2 F,2 z2 | z2 C,2 z2 | %21
 z2 C,2 z2 | z2 F,2[K:treble] z2 | x6 | .[B,D]2 z2 z2 | A-[A,A-] [CA][K:bass]F, C,C, | %26
[M:7/16] F,/-F,/-F,/-F,-<F, |] %27
V:6
 x6 | x6 | x6 | x6 |[M:3/8] x3 | x3 |[M:3/4] x6 | x6 | x6 |[M:3/8] x3 | x3 |[M:3/4] x6 | x6 | x6 | %14
 x6 | x6 | x6 | x6 |[M:13/16] x13/2 |[M:3/4] x6 | z .G,3 z2 | x[K:bass] x2[K:treble] x3 | x6 | x6 | %24
 x6 | x6 |[M:7/16] x7/2 |] %27

